X:402
T: Renren qixin touyizhuang
N: C2019
O: China, Jiangsu Yancheng
S: III, 453]
R: Haozi, Yangtiange. Gedangdao]
M: 2/4
L: 1/16
K: F
D4C2C2 | D4G2D2 | F8
G2AGD4 | G3Ac2c2 | d3dc2A2 | G2AcA2G2 | F6G2 | D4C4
C3CD2F2 | G2G2F2G2 | A4c2A2 | G4G2D2 | F6G2 | FGD2C4
F2F2D2F2 | G2AGD4
G3Ac2c2 | d3dc2A2 | G2AcA2G2 | F6G2 | FGD2C4
DfC4D2 | F3FD3F | G4A2G2 | F8
C4D2F2 | G2G4A2 | G2F2DCDF | C8
D4C2C2 | D4G2D2 | F8

